img/icones/afiado.svg

<svg width="32" height="32" viewBox="0 0 32 32" fill="none" xmlns="http://www.w3.org/2000/svg">
<path d="M23.5 28.75C23.8978 28.75 24.2794 28.592 24.5607 28.3107C24.842 28.0294 25 27.6478 25 27.25C25 25.75 23.5 23.75 23.5 23.75C23.5 23.75 22 25.75 22 27.25C22 27.6478 22.158 28.0294 22.4393 28.3107C22.7206 28.592 23.1022 28.75 23.5 28.75ZM27.5 23C27.8978 23 28.2794 22.842 28.5607 22.5607C28.842 22.2794 29 21.8978 29 21.5C29 20 27.5 18 27.5 18C27.5 18 26 20 26 21.5C26 21.8978 26.158 22.2794 26.4393 22.5607C26.7206 22.842 27.1022 23 27.5 23Z" fill="url(#paint0_linear_106_49)"/>
<path d="M15.5 8.225C15.3595 8.36563 15.2806 8.55625 15.2806 8.755C15.2806 8.95375 15.3595 9.14438 15.5 9.285L19.5575 13.3525C20.3814 14.1748 21.0325 15.1535 21.4726 16.2312C21.9126 17.3088 22.1328 18.4636 22.12 19.6275C24.4104 19.6047 26.6005 18.6847 28.2201 17.0651C29.8397 15.4455 30.7597 13.2554 30.7825 10.965C29.6173 10.9788 28.4611 10.7592 27.3821 10.3191C26.3031 9.87897 25.3231 9.22731 24.5 8.4025L20.44 4.3375C20.2994 4.19705 20.1087 4.11816 19.91 4.11816C19.7112 4.11816 19.5206 4.19705 19.38 4.3375L15.5 8.225Z" fill="url(#paint1_linear_106_49)"/>
<path d="M30.7825 10.9649C30.7597 13.2553 29.8397 15.4454 28.2201 17.0651C26.6005 18.6847 24.4104 19.6047 22.12 19.6274C22.1331 18.4635 21.9131 17.3086 21.473 16.2309C21.0329 15.1533 20.3816 14.1746 19.5575 13.3524L18 11.7824L20.4125 9.36995C20.7873 8.99491 20.9978 8.4864 20.9978 7.9562C20.9978 7.42599 20.7873 6.91748 20.4125 6.54245L18.8 4.92995L19.3925 4.33995C19.5331 4.1995 19.7237 4.12061 19.9225 4.12061C20.1213 4.12061 20.3119 4.1995 20.4525 4.33995L24.5 8.40245C25.323 9.22748 26.3029 9.87929 27.382 10.3194C28.461 10.7595 29.6172 10.979 30.7825 10.9649Z" fill="url(#paint2_linear_106_49)"/>
<path d="M30.7825 10.965C30.7597 13.2553 29.8397 15.4455 28.2201 17.0651C26.6005 18.6847 24.4104 19.6047 22.12 19.6275C22.1268 18.7876 22.0149 17.951 21.7875 17.1425C23.3681 16.7705 24.8138 15.9652 25.962 14.817C27.1102 13.6687 27.9155 12.2231 28.2875 10.6425C29.0994 10.8688 29.9397 10.9774 30.7825 10.965Z" fill="url(#paint3_linear_106_49)"/>
<path d="M22.0925 18.945L22.0675 18.445C24.0479 18.3895 25.9319 17.5777 27.3323 16.1763C28.7327 14.775 29.5433 12.8905 29.5975 10.91L30.0975 10.935C30.0347 13.0369 29.1717 15.0354 27.6848 16.5223C26.1979 18.0092 24.1994 18.8723 22.0975 18.935L22.0925 18.945Z" fill="url(#paint4_linear_106_49)"/>
<path d="M29.7825 14.94C29.0482 16.3409 27.948 17.5166 26.5987 18.342C25.2494 19.1674 23.7017 19.6117 22.12 19.6275C22.1242 19.1918 22.0958 18.7564 22.035 18.325C22.035 18.325 22.5 17.25 24.25 17C26.25 16.715 26.615 16.635 27.5 15.75C28.75 14.5 29.7825 14.94 29.7825 14.94Z" fill="url(#paint5_linear_106_49)"/>
<path d="M21.5 4.69006L22.295 3.89506C22.4691 3.72082 22.6759 3.5826 22.9034 3.4883C23.131 3.394 23.3749 3.34546 23.6213 3.34546C23.8676 3.34546 24.1115 3.394 24.3391 3.4883C24.5666 3.5826 24.7734 3.72082 24.9475 3.89506C25.1217 4.06918 25.26 4.27594 25.3543 4.5035C25.4486 4.73106 25.4971 4.97498 25.4971 5.22131C25.4971 5.46764 25.4486 5.71155 25.3543 5.93912C25.26 6.16668 25.1217 6.37343 24.9475 6.54756L24.1525 7.34256" fill="url(#paint6_linear_106_49)"/>
<path d="M25.5 5.22C25.5006 5.46627 25.4523 5.71021 25.3579 5.93766C25.2635 6.16511 25.1249 6.37155 24.95 6.545L24.155 7.3425L23.155 6.3425L23.95 5.545C24.1249 5.37155 24.2635 5.16511 24.3579 4.93766C24.4523 4.71021 24.5006 4.46627 24.5 4.22C24.4991 3.97234 24.448 3.72744 24.35 3.5C24.5733 3.59439 24.7762 3.73107 24.9475 3.9025C25.1219 4.07485 25.2605 4.27998 25.3553 4.50609C25.4501 4.7322 25.4993 4.97482 25.5 5.22Z" fill="url(#paint7_linear_106_49)"/>
<path d="M18.3775 13.1175L4.795 26.6975C4.62087 26.8718 4.41412 27.01 4.18655 27.1043C3.95899 27.1986 3.71507 27.2471 3.46875 27.2471C3.22242 27.2471 2.9785 27.1986 2.75094 27.1043C2.52337 27.01 2.31662 26.8718 2.1425 26.6975C1.96826 26.5234 1.83004 26.3167 1.73574 26.0891C1.64143 25.8615 1.5929 25.6176 1.5929 25.3713C1.5929 25.125 1.64143 24.881 1.73574 24.6535C1.83004 24.4259 1.96826 24.2192 2.1425 24.045L15.6425 10.545L18.3775 13.1175Z" fill="url(#paint8_linear_106_49)"/>
<path d="M18.3776 13.1175L15.6376 10.5525L14.7426 11.45L17.3926 14.1025L18.3776 13.1175Z" fill="url(#paint9_linear_106_49)"/>
<path d="M3.67002 25.5725C3.41729 25.8228 3.09849 25.996 2.75094 26.0717C2.40339 26.1474 2.04146 26.1225 1.70752 26C1.81421 26.2971 1.99428 26.5624 2.23099 26.7713C2.46769 26.9801 2.75335 27.1257 3.06142 27.1946C3.36948 27.2634 3.68995 27.2532 3.99304 27.165C4.29613 27.0768 4.57201 26.9134 4.79502 26.69L17.3925 14.1025L16.2675 12.9775L3.67002 25.5725Z" fill="url(#paint10_linear_106_49)"/>
<path d="M17.215 12.03L16.2675 12.9775L17.3925 14.1025L18.3775 13.1175L17.215 12.03Z" fill="url(#paint11_linear_106_49)"/>
<path d="M23.5 23C23.3836 23 23.2687 23.0271 23.1646 23.0792C23.0604 23.1313 22.9699 23.2069 22.9 23.3C22.73 23.525 21.25 25.55 21.25 27.25C21.25 27.8467 21.4871 28.419 21.909 28.841C22.331 29.2629 22.9033 29.5 23.5 29.5C24.0967 29.5 24.669 29.2629 25.091 28.841C25.5129 28.419 25.75 27.8467 25.75 27.25C25.75 25.55 24.27 23.525 24.1 23.3C24.0301 23.2069 23.9396 23.1313 23.8354 23.0792C23.7313 23.0271 23.6164 23 23.5 23ZM23.5 28C23.3011 28 23.1103 27.921 22.9697 27.7803C22.829 27.6397 22.75 27.4489 22.75 27.25C22.75 26.6175 23.125 25.79 23.5 25.1325C23.8725 25.79 24.25 26.6325 24.25 27.25C24.25 27.4489 24.171 27.6397 24.0303 27.7803C23.8897 27.921 23.6989 28 23.5 28Z" fill="url(#paint12_linear_106_49)"/>
<defs>
<linearGradient id="paint0_linear_106_49" x1="25.5" y1="18" x2="25.5" y2="28.75" gradientUnits="userSpaceOnUse">
<stop stop-color="#168EE0"/>
<stop offset="1" stop-color="#005F9F"/>
</linearGradient>
<linearGradient id="paint1_linear_106_49" x1="23.0316" y1="4.11816" x2="23.0316" y2="19.6275" gradientUnits="userSpaceOnUse">
<stop stop-color="#168EE0"/>
<stop offset="1" stop-color="#005F9F"/>
</linearGradient>
<linearGradient id="paint2_linear_106_49" x1="24.3912" y1="4.12061" x2="24.3912" y2="19.6274" gradientUnits="userSpaceOnUse">
<stop stop-color="#168EE0"/>
<stop offset="1" stop-color="#005F9F"/>
</linearGradient>
<linearGradient id="paint3_linear_106_49" x1="26.285" y1="10.6425" x2="26.285" y2="19.6275" gradientUnits="userSpaceOnUse">
<stop stop-color="#168EE0"/>
<stop offset="1" stop-color="#005F9F"/>
</linearGradient>
<linearGradient id="paint4_linear_106_49" x1="26.0825" y1="10.91" x2="26.0825" y2="18.945" gradientUnits="userSpaceOnUse">
<stop stop-color="#168EE0"/>
<stop offset="1" stop-color="#005F9F"/>
</linearGradient>
<linearGradient id="paint5_linear_106_49" x1="25.9088" y1="14.8649" x2="25.9088" y2="19.6275" gradientUnits="userSpaceOnUse">
<stop stop-color="#168EE0"/>
<stop offset="1" stop-color="#005F9F"/>
</linearGradient>
<linearGradient id="paint6_linear_106_49" x1="23.4985" y1="3.34546" x2="23.4985" y2="7.34256" gradientUnits="userSpaceOnUse">
<stop stop-color="#168EE0"/>
<stop offset="1" stop-color="#005F9F"/>
</linearGradient>
<linearGradient id="paint7_linear_106_49" x1="24.3275" y1="3.5" x2="24.3275" y2="7.3425" gradientUnits="userSpaceOnUse">
<stop stop-color="#168EE0"/>
<stop offset="1" stop-color="#005F9F"/>
</linearGradient>
<linearGradient id="paint8_linear_106_49" x1="9.9852" y1="10.545" x2="9.9852" y2="27.2471" gradientUnits="userSpaceOnUse">
<stop stop-color="#168EE0"/>
<stop offset="1" stop-color="#005F9F"/>
</linearGradient>
<linearGradient id="paint9_linear_106_49" x1="16.5601" y1="10.5525" x2="16.5601" y2="14.1025" gradientUnits="userSpaceOnUse">
<stop stop-color="#168EE0"/>
<stop offset="1" stop-color="#005F9F"/>
</linearGradient>
<linearGradient id="paint10_linear_106_49" x1="9.55002" y1="12.9775" x2="9.55002" y2="27.2396" gradientUnits="userSpaceOnUse">
<stop stop-color="#168EE0"/>
<stop offset="1" stop-color="#005F9F"/>
</linearGradient>
<linearGradient id="paint11_linear_106_49" x1="17.3225" y1="12.03" x2="17.3225" y2="14.1025" gradientUnits="userSpaceOnUse">
<stop stop-color="#168EE0"/>
<stop offset="1" stop-color="#005F9F"/>
</linearGradient>
<linearGradient id="paint12_linear_106_49" x1="23.5" y1="23" x2="23.5" y2="29.5" gradientUnits="userSpaceOnUse">
<stop stop-color="#168EE0"/>
<stop offset="1" stop-color="#005F9F"/>
</linearGradient>
</defs>
</svg>

<svg width="32" height="32" fill="none" xmlns="http://www.w3.org/2000/svg"><path d="M23.5 28.75a1.5 1.5 0 0 0 1.5-1.5c0-1.5-1.5-3.5-1.5-3.5s-1.5 2-1.5 3.5a1.5 1.5 0 0 0 1.5 1.5Zm4-5.75a1.5 1.5 0 0 0 1.5-1.5c0-1.5-1.5-3.5-1.5-3.5S26 20 26 21.5a1.5 1.5 0 0 0 1.5 1.5Z" fill="url(#a)"/><path d="M15.5 8.225a.75.75 0 0 0 0 1.06l4.058 4.067a8.73 8.73 0 0 1 2.562 6.276 8.75 8.75 0 0 0 8.662-8.663A8.73 8.73 0 0 1 24.5 8.402l-4.06-4.064a.75.75 0 0 0-1.06 0L15.5 8.225Z" fill="url(#b)"/><path d="M30.782 10.965a8.75 8.75 0 0 1-8.662 8.662 8.725 8.725 0 0 0-2.563-6.275L18 11.782l2.413-2.412a2 2 0 0 0 0-2.828L18.8 4.93l.592-.59a.75.75 0 0 1 1.06 0L24.5 8.402a8.725 8.725 0 0 0 6.282 2.563Z" fill="url(#c)"/><path d="M30.782 10.965a8.75 8.75 0 0 1-8.662 8.663 8.911 8.911 0 0 0-.332-2.486 8.733 8.733 0 0 0 6.5-6.5 8.81 8.81 0 0 0 2.494.323Z" fill="url(#d)"/><path d="m22.093 18.945-.026-.5a7.75 7.75 0 0 0 7.53-7.535l.5.025a8.25 8.25 0 0 1-8 8l-.005.01Z" fill="url(#e)"/><path d="M29.782 14.94a8.75 8.75 0 0 1-7.662 4.688 8.73 8.73 0 0 0-.085-1.303S22.5 17.25 24.25 17c2-.285 2.365-.365 3.25-1.25 1.25-1.25 2.282-.81 2.282-.81Z" fill="url(#f)"/><path d="m21.5 4.69.795-.795a1.875 1.875 0 1 1 2.652 2.653l-.794.795" fill="url(#g)"/><path d="M25.5 5.22a1.86 1.86 0 0 1-.55 1.325l-.795.798-1-1 .795-.798a1.859 1.859 0 0 0 .4-2.045c.223.094.426.231.598.402A1.86 1.86 0 0 1 25.5 5.22Z" fill="url(#h)"/><path d="M18.378 13.117 4.795 26.697a1.874 1.874 0 0 1-3.202-1.326 1.875 1.875 0 0 1 .55-1.326l13.5-13.5 2.735 2.572Z" fill="url(#i)"/><path d="m18.378 13.117-2.74-2.565-.895.898 2.65 2.652.985-.985Z" fill="url(#j)"/><path d="M3.67 25.573A1.872 1.872 0 0 1 1.708 26a1.873 1.873 0 0 0 3.087.69l12.597-12.588-1.125-1.125L3.67 25.573Z" fill="url(#k)"/><path d="m17.215 12.03-.948.947 1.125 1.125.986-.985-1.163-1.087Z" fill="url(#l)"/><path d="M23.5 23a.75.75 0 0 0-.6.3c-.17.225-1.65 2.25-1.65 3.95a2.25 2.25 0 0 0 4.5 0c0-1.7-1.48-3.725-1.65-3.95a.75.75 0 0 0-.6-.3Zm0 5a.75.75 0 0 1-.75-.75c0-.633.375-1.46.75-2.117.372.657.75 1.5.75 2.117a.75.75 0 0 1-.75.75Z" fill="url(#m)"/><defs><linearGradient id="a" x1="25.5" y1="18" x2="25.5" y2="28.75" gradientUnits="userSpaceOnUse"><stop stop-color="#168EE0"/><stop offset="1" stop-color="#005F9F"/></linearGradient><linearGradient id="b" x1="23.032" y1="4.118" x2="23.032" y2="19.628" gradientUnits="userSpaceOnUse"><stop stop-color="#168EE0"/><stop offset="1" stop-color="#005F9F"/></linearGradient><linearGradient id="c" x1="24.391" y1="4.121" x2="24.391" y2="19.627" gradientUnits="userSpaceOnUse"><stop stop-color="#168EE0"/><stop offset="1" stop-color="#005F9F"/></linearGradient><linearGradient id="d" x1="26.285" y1="10.643" x2="26.285" y2="19.628" gradientUnits="userSpaceOnUse"><stop stop-color="#168EE0"/><stop offset="1" stop-color="#005F9F"/></linearGradient><linearGradient id="e" x1="26.082" y1="10.91" x2="26.082" y2="18.945" gradientUnits="userSpaceOnUse"><stop stop-color="#168EE0"/><stop offset="1" stop-color="#005F9F"/></linearGradient><linearGradient id="f" x1="25.909" y1="14.865" x2="25.909" y2="19.628" gradientUnits="userSpaceOnUse"><stop stop-color="#168EE0"/><stop offset="1" stop-color="#005F9F"/></linearGradient><linearGradient id="g" x1="23.498" y1="3.345" x2="23.498" y2="7.343" gradientUnits="userSpaceOnUse"><stop stop-color="#168EE0"/><stop offset="1" stop-color="#005F9F"/></linearGradient><linearGradient id="h" x1="24.328" y1="3.5" x2="24.328" y2="7.343" gradientUnits="userSpaceOnUse"><stop stop-color="#168EE0"/><stop offset="1" stop-color="#005F9F"/></linearGradient><linearGradient id="i" x1="9.985" y1="10.545" x2="9.985" y2="27.247" gradientUnits="userSpaceOnUse"><stop stop-color="#168EE0"/><stop offset="1" stop-color="#005F9F"/></linearGradient><linearGradient id="j" x1="16.56" y1="10.553" x2="16.56" y2="14.102" gradientUnits="userSpaceOnUse"><stop stop-color="#168EE0"/><stop offset="1" stop-color="#005F9F"/></linearGradient><linearGradient id="k" x1="9.55" y1="12.977" x2="9.55" y2="27.24" gradientUnits="userSpaceOnUse"><stop stop-color="#168EE0"/><stop offset="1" stop-color="#005F9F"/></linearGradient><linearGradient id="l" x1="17.323" y1="12.03" x2="17.323" y2="14.102" gradientUnits="userSpaceOnUse"><stop stop-color="#168EE0"/><stop offset="1" stop-color="#005F9F"/></linearGradient><linearGradient id="m" x1="23.5" y1="23" x2="23.5" y2="29.5" gradientUnits="userSpaceOnUse"><stop stop-color="#168EE0"/><stop offset="1" stop-color="#005F9F"/></linearGradient></defs></svg>
